X: 43
T: 1. Jennifer's Jig
R: Jig
M: 6/8
L: 1/8
% Q: 330
K: D
|: F |\
"D" A<d B A2 F | "D" A<d c B2G | "Em" B<e d "A" cBc |  "A" A<a g "D" fdB |
"D" A<d B A2 F | "D" A<d c B2G | "Em" B<e d "A" cBA |  "A" gfe   "D" d2 :|
| e |: \
"Bm" f2F  FBd  | "Bm" fbg  fed | "A"  e2E       EAc |  "A" eaf       edc |
"Bm" d2B  Bcd  | "A"  e2c  cde | "Bm" fef   "A" agf |1 "A" efd cde :|2 "A" efe "D" d2 ||
